X:1
T:Title
%%score 1 { 2 | ( 3 4 ) }
L:1/8
Q:1/4=110
M:4/4
K:Bb
V:1 treble nm="Grand Piano, Staff 1"
V:2 bass nm="Choir Pad, Xavier, 77.77"
V:3 bass 
V:4 bass 
V:1
 [DB]2 [B,F]2 [B,G]2 [B,E]2 | [B,C]2 [A,F]2 [B,D]4 | [Fd]2 [Gd]2 [Gc]2 F2 | [FA]2 [=EG]2 F4 | %4
w: By~Francis~Henry~Champneys,~1875 * * *||||
 G2 [Gc]2 [F=B]2 [Ec]2 | [Dd]2 [FG]2 [Ee]4 | [Fc]2 [Fc]2 [Fd]2 F2 | [FG]2 [EA]2 [DB]4- | %8
w: ||||
 [DB]4 z4 |] %9
w: |
V:2
 F,2 F,2 E,2 G,2 | F,2 F,2 F,4 | B,2 B,2 B,2 A,2 | .C4 A,4 | C2 C2 G,2[K:bass] G,2 | G,2 =B,2 C4 | %6
 A,2 C2 B,2 B,2 | D2 C2 B,4- | B,4 z4 |] %9
V:3
 B,,2 D,2 z2 C,2 | z2 F,,2 B,,4 | z2 G,2 =E,2 F,2 | C,2 z B, F,4 | E,2 E,2 D,2 C,2 | %5
 =B,,2 G,,2 C,4 | F,2 A,,2 B,,2 D,2 | E,2 F,2 B,,4- | B,,4 z4 |] %9
V:4
 x8 | x8 | x8 | z2 C,2 z4 | x8 | x8 | x8 | x8 | x8 |] %9

